X:21159 
T:PADDY'S WHISKERS 
B:DMI.0259
Z:Nordberg/Black
R:jig
%Q:1/4=160
M:6/8
L:1/8
K:D
G|FGA Bcd|cBA d2e|fdB AGF|GFG EAG|
FGA Bcd|cBA d2e|fdB AFA|Bdd d2:|
g|aAA ABA|agf ecA|dDD DED|AGF E2G|
FGA Bcd|cBA g2g|fdB AFA|Bdd d2:|

%%%

